public/favicon.svg

<svg viewBox="372 117 361 254" xmlns="http://www.w3.org/2000/svg"><style>.favicon{fill:#c98e5f}.favicon-detail{fill:#111}.favicon-eye-highlight{fill:#fff}.favicon-tongue{fill:#e85050}.favicon-dog{transform-box:fill-box;transform-origin:50% 100%;animation:dog-breathe 2.8s ease-in-out infinite}.favicon-eye-open,.favicon-highlight{animation:eye-open 3.2s ease-in-out infinite}.favicon-eye-close{opacity:0;animation:eye-close 3.2s ease-in-out infinite}.favicon-mouth{transform-box:fill-box;transform-origin:50% 70%;animation:dog-mouth 2.8s ease-in-out infinite}.favicon-tongue{transform-box:fill-box;transform-origin:50% 0%;animation:dog-tongue 2.8s ease-in-out infinite}@keyframes dog-breathe{0%,100%{transform:scaleY(1)}50%{transform:scaleY(.985)}}@keyframes eye-open{0%,88%,100%{opacity:1}91%,96%{opacity:0}}@keyframes eye-close{0%,88%,100%{opacity:0}91%,96%{opacity:1}}@keyframes dog-mouth{0%,100%{transform:scaleY(1)}50%{transform:scaleY(1.035)}}@keyframes dog-tongue{0%,100%{transform:scaleY(1)}50%{transform:scaleY(1.08)}}@media(prefers-color-scheme:dark){.favicon{fill:#fff}.favicon-tongue{fill:#fff}}</style><g class="favicon-dog"><path class="favicon" fill-rule="evenodd" d="M553 124c-3-5-5-8-3-7-9 4-19 15-26 27-8 1-17 4-27 9-5 2-10 5-13 7-7-4-16-7-25-7-12 0-22 6-32 17-20 19-38 44-48 67-7 15-8 29 0 40 9 11 22 15 36 11 20-4 34-18 41-34 8-25 18-46 31-59-10 30-20 58-28 85-13 41 11 72 45 83 14 5 31 8 47 8 17 0 34-3 49-8 34-11 58-42 46-83-8-27-17-54-27-83 14 11 27 32 35 57 8 22 25 36 43 36 16-1 29-12 32-27 4-16-2-33-13-51-12-20-28-38-42-49-12-9-25-12-36-10-8 1-16 4-20 7-12-7-26-13-41-17 2-6 9-15 7-16-11-1-21 3-30 11 0-5 0-10-1-14z"/><g><path class="favicon-detail favicon-eye-open" d="M492 232c-13 0-18 12-16 22 2 11 12 19 22 18 11-1 18-10 17-21s-11-19-23-19z"/><path class="favicon-eye-highlight favicon-highlight" d="M502 240c-5 0-6 4-5 7 1 4 6 5 10 2 3-3 1-8-5-9z"/><path class="favicon-detail favicon-eye-close" d="M480 252h32c3 0 3 5 0 5h-32c-3 0-3-5 0-5z"/></g><g><path class="favicon-detail favicon-eye-open" d="M604 232c-12 0-18 10-16 22 2 11 11 19 22 18s18-10 17-21-11-19-23-19z"/><path class="favicon-eye-highlight favicon-highlight" d="M612 240c-4 1-5 5-3 9 2 3 7 3 10-1s-1-8-7-8z"/><path class="favicon-detail favicon-eye-close" d="M592 252h32c3 0 3 5 0 5h-32c-3 0-3-5 0-5z"/></g><g class="favicon-mouth"><path class="favicon-detail" d="M543 268c10-1 23 0 30 5 8 6 8 15 2 22-4 5-10 8-18 11 0 8 8 15 18 15 9 0 14-6 16-14 1-3 7-3 8 1 1 7-7 17-15 20-3 1-7 2-11 3-1 12-8 23-20 27-11 3-21-4-24-16-1-4-1-8 0-12-11-1-22-9-26-19-2-6 5-8 8-3 5 9 14 14 24 12 7-2 11-8 9-14-5-1-12-6-17-13-6-9-2-19 16-25z"/><path class="favicon-tongue" d="M538 329c-1 10 3 21 13 21s15-10 12-20c-2-3-6-5-9-6 0 7-1 11-5 12-4-1-5-6-1-12-4 1-8 2-10 5z"/></g></g></svg>

<svg viewBox="372 117 361 254" xmlns="http://www.w3.org/2000/svg">
    <style>
        .favicon {
            fill: #c98e5f;
        }

        .favicon-detail {
            fill: #111111;
        }
        
        .favicon-eye-highlight {
            fill: #ffffff;
        }

        .favicon-tongue {
            fill: #e85050;
        }

        @media (prefers-color-scheme: dark) {
            .favicon {
                fill: #ffffff;
            }

            .favicon-tongue {
                fill: #ffffff;
            }
        }
    </style>

    <path class="favicon-detail" d="
        M 492 232
        C 479 232 474 244 476 254
        C 478 265 488 273 498 272
        C 509 271 516 262 515 251
        C 514 240 504 232 492 232
        Z

        M 604 232
        C 592 232 586 242 588 254
        C 590 265 599 273 610 272
        C 621 271 628 262 627 251
        C 626 240 616 232 604 232
        Z

        M 543 268
        C 553 267 566 268 573 273
        C 581 279 581 288 575 295
        C 571 300 565 303 557 306
        C 557 314 565 321 575 321
        C 584 321 589 315 591 307
        C 592 304 598 304 599 308
        C 600 315 592 325 584 328
        C 581 329 577 330 573 331
        C 572 343 565 354 553 358
        C 542 361 532 354 529 342
        C 528 338 528 334 529 330
        C 518 329 507 321 503 311
        C 501 305 508 303 511 308
        C 516 317 525 322 535 320
        C 542 318 546 312 544 306
        C 539 305 532 300 527 293
        C 521 284 525 274 543 268
        Z
    "/>

    <path class="favicon" fill-rule="evenodd" d="
        M 553 124
        C 550 119 548 116 550 117
        C 541 121 531 132 524 144
        C 516 145 507 148 497 153
        C 492 155 487 158 484 160
        C 477 156 468 153 459 153
        C 447 153 437 159 427 170
        C 407 189 389 214 379 237
        C 372 252 371 266 379 277
        C 387 287 400 292 413 289
        C 432 291 448 276 456 254
        C 464 229 474 208 487 195
        C 477 225 467 253 459 280
        C 446 321 470 352 504 363
        C 518 368 535 371 551 371
        C 568 371 585 368 600 363
        C 634 352 658 321 646 280
        C 638 253 629 226 619 197
        C 633 208 646 229 654 254
        C 662 276 679 290 697 290
        C 713 289 726 278 729 263
        C 733 247 727 230 716 212
        C 704 192 688 174 674 163
        C 662 154 649 151 638 153
        C 630 154 622 157 618 160
        C 606 153 592 147 577 143
        C 579 137 586 128 584 127
        C 573 126 563 130 554 138
        C 554 133 554 128 553 124
        Z

        M 492 232
        C 479 232 474 244 476 254
        C 478 265 488 273 498 272
        C 509 271 516 262 515 251
        C 514 240 504 232 492 232
        Z

        M 604 232
        C 592 232 586 242 588 254
        C 590 265 599 273 610 272
        C 621 271 628 262 627 251
        C 626 240 616 232 604 232
        Z

        M 502 240
        C 497 240 496 244 497 247
        C 498 251 503 252 507 249
        C 510 246 508 241 502 240
        Z

        M 612 240
        C 608 241 607 245 609 249
        C 611 252 616 252 619 248
        C 622 244 618 240 612 240
        Z

        M 543 268
        C 553 267 566 268 573 273
        C 581 279 581 288 575 295
        C 571 300 565 303 557 306
        C 557 314 565 321 575 321
        C 584 321 589 315 591 307
        C 592 304 598 304 599 308
        C 600 315 592 325 584 328
        C 581 329 577 330 573 331
        C 572 343 565 354 553 358
        C 542 361 532 354 529 342
        C 528 338 528 334 529 330
        C 518 329 507 321 503 311
        C 501 305 508 303 511 308
        C 516 317 525 322 535 320
        C 542 318 546 312 544 306
        C 539 305 532 300 527 293
        C 521 284 525 274 543 268
        Z

        M 538 329
        C 537 339 541 350 551 350
        C 561 350 566 340 563 330
        C 561 327 557 325 554 324
        C 554 331 553 335 549 336
        C 545 335 544 330 548 324
        C 544 325 540 326 538 329
        Z
    "/>

    <path class="favicon-eye-highlight" d="
        M 502 240
        C 497 240 496 244 497 247
        C 498 251 503 252 507 249
        C 510 246 508 241 502 240
        Z

        M 612 240
        C 608 241 607 245 609 249
        C 611 252 616 252 619 248
        C 622 244 618 240 612 240
        Z
    "/>

    <path class="favicon-tongue" d="
        M 538 329
        C 537 339 541 350 551 350
        C 561 350 566 340 563 330
        C 561 327 557 325 554 324
        C 554 331 553 335 549 336
        C 545 335 544 330 548 324
        C 544 325 540 326 538 329
        Z
    "/>
</svg>
